brandFactory_export/1.Light/Proceso cargando _1Light.svg

<?xml version="1.0" encoding="UTF-8"?>
<svg width="24px" height="24px" viewBox="0 0 24 24" version="1.1" xmlns="http://www.w3.org/2000/svg" xmlns:xlink="http://www.w3.org/1999/xlink">
    <title>1.Light/Proceso cargando _1Light</title>
    <g id="Symbols" stroke="none" stroke-width="1" fill="none" fill-rule="evenodd">
        <g id="1.Light/Proceso-cargando-_1Light" fill="#5CB615" fill-rule="nonzero">
            <path d="M11.8117647,0 C19.5092437,0 23.6235294,4.07394958 23.6235294,11.8117647 C23.6235294,19.5495798 19.5495798,23.6235294 11.8117647,23.6235294 C4.07394958,23.6235294 0,19.5495798 0,11.8117647 C0,4.07394958 4.07394958,0 11.8117647,0 Z M11.8117647,22.6386555 C18.9680672,22.6386555 22.6386555,18.9983193 22.6386555,11.8117647 C22.6386555,4.62521008 19.0084034,0.98487395 11.8117647,0.98487395 C4.61512605,0.98487395 0.98487395,4.65546218 0.98487395,11.8117647 C0.98487395,18.9680672 4.61512605,22.6386555 11.8117647,22.6386555 Z M11.8117647,2.50084034 C12.0705882,2.50084034 12.2823529,2.69579832 12.302521,2.95462185 L12.302521,6.69579832 C12.2957983,6.96470588 12.0806723,7.18319328 11.8117647,7.18655462 C11.5394958,7.18655462 11.3210084,6.96470588 11.3210084,6.69579832 L11.3210084,2.99159664 C11.3210084,2.71932773 11.5394958,2.50084034 11.8117647,2.50084034 Z M7.18655462,11.7445378 C7.18655462,12.0168067 6.96470588,12.2352941 6.69579832,12.2352941 L2.9512605,12.2352941 C2.6789916,12.2352941 2.4605042,12.0134454 2.4605042,11.7445378 C2.4605042,11.4722689 2.68235294,11.2537815 2.9512605,11.2537815 L6.69243697,11.2537815 C6.96470588,11.2504202 7.18655462,11.4722689 7.18655462,11.7445378 Z M7.79495798,15.0218487 C7.99663866,14.8403361 8.3092437,14.8537815 8.4907563,15.0554622 L8.49411765,15.0588235 C8.68571429,15.2369748 8.69243697,15.5361345 8.51428571,15.7277311 L8.49411765,15.7478992 L5.90588235,18.3260504 C5.81176471,18.4302521 5.67394958,18.4840336 5.53277311,18.4739496 C5.2605042,18.4705882 5.04537815,18.2453782 5.0487395,17.9764706 C5.05210084,17.8487395 5.10252101,17.7277311 5.18991597,17.6403361 C5.18655462,17.6403361 7.79495798,15.0218487 7.79495798,15.0218487 L7.79495798,15.0218487 Z M11.7445378,16.410084 C12.0168067,16.410084 12.2352941,16.6319328 12.2352941,16.9008403 L12.2352941,20.5915966 C12.2352941,20.8638655 12.0134454,21.0823529 11.7445378,21.0823529 C11.4722689,21.0823529 11.2537815,20.8605042 11.2537815,20.5915966 L11.2537815,16.9008403 C11.2504202,16.6285714 11.4722689,16.410084 11.7445378,16.410084 Z M15.7478992,15.0890756 L18.3663866,17.707563 C18.5579832,17.8991597 18.5613445,18.2117647 18.3697479,18.4033613 L18.3663866,18.4067227 C18.2722689,18.4941176 18.1512605,18.5445378 18.0235294,18.5445378 C17.8957983,18.5445378 17.7714286,18.497479 17.6806723,18.4067227 L15.0588235,15.7882353 C14.8672269,15.5966387 14.8638655,15.2840336 15.0554622,15.092437 L15.0588235,15.0890756 C15.2504202,14.9008403 15.5563025,14.9008403 15.7478992,15.0890756 L15.7478992,15.0890756 Z M20.5915966,11.3579832 C20.8638655,11.3579832 21.0823529,11.5798319 21.0823529,11.8487395 C21.0823529,12.1210084 20.8605042,12.3394958 20.5915966,12.3394958 L16.9008403,12.3394958 C16.6285714,12.3394958 16.410084,12.1176471 16.410084,11.8487395 C16.410084,11.5764706 16.6319328,11.3579832 16.9008403,11.3579832 L20.5915966,11.3579832 Z M15.4453782,8.71260504 C15.3142857,8.71260504 15.1865546,8.66218487 15.092437,8.57478992 C14.9042017,8.37983193 14.9042017,8.07058824 15.092437,7.87563025 L17.7210084,5.25714286 C17.9294118,5.08235294 18.2386555,5.1092437 18.4134454,5.31428571 C18.5714286,5.49915966 18.5680672,5.77142857 18.410084,5.95630252 L15.7512605,8.57478992 C15.6638655,8.65210084 15.5563025,8.69915966 15.4453782,8.71260504 Z" id="Proceso-cargando-_1Light"></path>
        </g>
    </g>
</svg>

<svg width="24" height="24" viewBox="0 0 24 24" xmlns="http://www.w3.org/2000/svg"><path d="M11.812 0c7.697 0 11.812 4.074 11.812 11.812 0 7.738-4.074 11.812-11.812 11.812C4.074 23.624 0 19.55 0 11.812 0 4.074 4.074 0 11.812 0zm0 22.639c7.156 0 10.827-3.64 10.827-10.827 0-7.187-3.63-10.827-10.827-10.827S.985 4.655.985 11.812c0 7.156 3.63 10.827 10.827 10.827zm0-20.138c.259 0 .47.195.49.454v3.74a.5.5 0 01-.49.492.491.491 0 01-.491-.491V2.992a.49.49 0 01.49-.491zm-4.625 9.244c0 .272-.222.49-.491.49H2.95a.491.491 0 010-.981h3.741a.49.49 0 01.495.49zm.608 3.277a.493.493 0 01.696.033l.003.004a.473.473 0 01.02.669l-.02.02-2.588 2.578a.458.458 0 01-.373.148.491.491 0 01-.343-.834c-.003 0 2.605-2.618 2.605-2.618zm3.95 1.388c.272 0 .49.222.49.49v3.692a.491.491 0 01-.981 0V16.9a.487.487 0 01.49-.49zm4.003-1.32l2.618 2.618a.493.493 0 01.004.695l-.004.004a.504.504 0 01-.342.138.483.483 0 01-.343-.138l-2.622-2.619a.493.493 0 01-.004-.696l.004-.003a.491.491 0 01.689 0zm4.844-3.732a.491.491 0 010 .981H16.9a.491.491 0 010-.981h3.69zm-5.147-2.645a.522.522 0 01-.353-.138.503.503 0 010-.7l2.629-2.618a.493.493 0 01.69.7l-2.66 2.618a.565.565 0 01-.306.138z" fill="#5CB615" fill-rule="nonzero"/></svg>
